X: 20786
T: Johnny Mac's
R: jig
M: 6/8
K: Amajor
|:ECE A3|AcB ~A2E|FAF ECE|AEE E3|
ECE ~A2G|AcB Acd|ecA dBG|1 BAG A3:|2 BAG Acd||
|:ecA Ace|aec d2f|ecA ecA|aec B2f|
ecA Ace|aec d2f|ece aec|1 dBG Acd:|2 dBG A3||

